X:1
T:Mélodies pour Piano et Chant (Chansons populaires)
T:Le retour du paladin
T:15. Le retour du paladin (Ballades héroïques) 
T:Augusta Holmès
T:Mélodies pour Piano et Chant 
T:(Holmès) 
T:Creative Commons copyright waiver (CC0 1.0 Universal)
T:Creative Commons copyright waiver (CC0 1.0 Universal)
T:Creative Commons copyright waiver (CC0 1.0 Universal)
T:Creative Commons copyright waiver (CC0 1.0 Universal)
T:Creative Commons copyright waiver (CC0 1.0 Universal)
T:Creative Commons copyright waiver (CC0 1.0 Universal)
T:Creative Commons copyright waiver (CC0 1.0 Universal)
T:Creative Commons copyright waiver (CC0 1.0 Universal)
C:Augusta Holmès
Z:Augusta Holmès
Z:Creative Commons copyright waiver (CC0 1.0 Universal)
%%score 1 { 2 | 3 }
L:1/8
Q:3/8=80
M:9/8
K:Bb
V:1 treble nm="Chant\nVoice"
V:2 treble nm="Piano"
V:3 bass 
V:1
"^Allegretto deciso" z9 | z9 | z9 | z2 z z2 z z2!f! D ||[M:6/8][Q:3/8=72]"^Moins vite" G z d B2 z | %5
w: |||Vo-|yez, vo- yez|
 z6 | z6 | z6 | z6 | z6 | z6 | z6 | z6 | z6 | z6 | z6 | z6 | z6 | z6 | z6 | z6 || %21
w: ||||||||||||||||
[M:9/8][Q:3/8=80]"^a Tempo deciso" z9 | z9 ||[M:6/8] z6 | z6 | z6 | z6 | z6 | z6 | z6 | z6 | %31
w: ||||||||||
 z2 z z2[Q:3/8=72]"^a Tempo. Moins vite" D | G z d B2 z | z6 | z6 | z6 | z6 || %37
w: Va-|t'en! va- t'en!|||||
[M:9/8][Q:3/8=80]"^a Tempo deciso" z9 | z9 | z9 | z9 ||[M:6/8][Q:3/8=72]"^Moins vite" z6 | z6 | %43
w: ||||||
 z6 | z6 | z6 | z6 | z6 | z6 | z6 | z6 | z6 | z6 | z6 | z6 | z6 | z6 | z6 | z6 ||[M:9/8] z9 | z9 || %61
w: ||||||||||||||||||
[M:6/8] z6 | z6 | z6 | z6 | z6 | z6 | z6 | z6 | z2 z z2!f![Q:3/8=72]"^a Tempo. Moins vite" D | %70
w: ||||||||Va-|
 G z d B3 | z6 | z6 | z6 | z6 ||[M:9/8][Q:3/8=80]"^a Tempo deciso" z9 | z9 | z9 | z9 || %79
w: t'en! va- t'en!|||||||||
[M:6/8][Q:3/8=72]"^Moins vite" z6 | z6 | z6 | z6 | z6 | z6 | z6 | z6 | z6 | z6 | z6 | z6 | z6 | %92
w: |||||||||||||
 z6 | z6 | z6 | z6 ||[M:9/8][Q:3/8=80]"^a Tempo deciso" z9 | z9 ||[M:6/8] z6 | z6 | z6 | z6 | z6 | %103
w: |||||||||||
 z6 | z6 | z6 | z2 z z2!f![Q:3/8=72]"^a Tempo. Moins vite" D | G z d B3 | z6 | z6 | z6 | z6 || %112
w: |||Ou-|vrez, ou- vrez|||||
[M:9/8][Q:3/8=80]"^a Tempo deciso" z9 | z9 | z9 | z9 |] %116
w: ||||
V:2
!f! !^!d>dd !^!d>dd!ff! [B_dgb]3 |!f! !^!d>dd !^!d>dd!ff! [B_dgb]3 | z9 | z9 ||[M:6/8] z6 | z6 | %6
 z6 | z6 | z6 | z6 | z6 | z6 | z6 | z6 | z6 | z6 | z6 | z6 | z6 | z6 | z6 ||[M:9/8] z9 | z9 || %23
[M:6/8] z6 | z6 | z6 | z6 | z6 | z6 | z6 | z6 | z6 | z6 | z6 | z6 | z6 | z6 ||[M:9/8] z9 | z9 | %39
 z9 | z9 ||[M:6/8] z6 | z6 | z6 | z6 | z6 | z6 | z6 | z6 | z6 | z6 | z6 | z6 | z6 | z6 | z6 | z6 | %57
 z6 | z6 ||[M:9/8] z9 | z9 ||[M:6/8] z6 | z6 | z6 | z6 | z6 | z6 | z6 | z6 | z6 | z6 | z6 | z6 | %73
 z6 | z6 ||[M:9/8] z9 | z9 | z9 | z9 ||[M:6/8] z6 | z6 | z6 | z6 | z6 | z6 | z6 | z6 | z6 | z6 | %89
 z6 | z6 | z6 | z6 | z6 | z6 | z6 ||[M:9/8] z9 | z9 ||[M:6/8] z6 | z6 | z6 | z6 | z6 | z6 | z6 | %105
 z6 | z6 | z6 | z6 | z6 | z6 | z6 ||[M:9/8] z9 | z9 | z9 | z9 |] %116
V:3
 !^!D>DD !^!D>DD !^![E,,G,,B,,E,]3 | !^!D>DD !^!D>DD !^![E,,G,,B,,E,]3 | z9 | z9 ||[M:6/8] z6 | %5
 z6 | z6 | z6 | z6 | z6 | z6 | z6 | z6 | z6 | z6 | z6 | z6 | z6 | z6 | z6 | z6 ||[M:9/8] z9 | z9 || %23
[M:6/8] z6 | z6 | z6 | z6 | z6 | z6 | z6 | z6 | z6 | z6 | z6 | z6 | z6 | z6 ||[M:9/8] z9 | z9 | %39
 z9 | z9 ||[M:6/8] z6 | z6 | z6 | z6 | z6 | z6 | z6 | z6 | z6 | z6 | z6 | z6 | z6 | z6 | z6 | z6 | %57
 z6 | z6 ||[M:9/8] z9 | z9 ||[M:6/8] z6 | z6 | z6 | z6 | z6 | z6 | z6 | z6 | z6 | z6 | z6 | z6 | %73
 z6 | z6 ||[M:9/8] z9 | z9 | z9 | z9 ||[M:6/8] z6 | z6 | z6 | z6 | z6 | z6 | z6 | z6 | z6 | z6 | %89
 z6 | z6 | z6 | z6 | z6 | z6 | z6 ||[M:9/8] z9 | z9 ||[M:6/8] z6 | z6 | z6 | z6 | z6 | z6 | z6 | %105
 z6 | z6 | z6 | z6 | z6 | z6 | z6 ||[M:9/8] z9 | z9 | z9 | z9 |] %116

